X:35
T: Grandpa Tommy's Ceili Band
C: M. Mulhaire
Z: B.Black
R: reel
M: 4/4
L: 1/8
K: G
D | GB (3BAB dBAB | GABG ABGE | DEGA Bgfg |\
eaaf gedB |
GB (3BAB dBAB | GABG ABGE | DEGA Bgfg |\
ecAF G3 :|
e|g2 af gfed|Bd (3d^cd Bd (3d^cd|gfaf gfed|\
ea (3aga ea (3aga|
g2 af gfed | Bd d2 gded | BgdB cBAG |\
(3FGA DF G3 :|
